public/assets/icons/search.svg

<svg width="22" height="21" viewBox="0 0 22 21" fill="none" xmlns="http://www.w3.org/2000/svg">
<path d="M21.4692 18.8921L16.7086 14.1315C17.8547 12.6057 18.4734 10.7485 18.4713 8.84016C18.4713 3.96573 14.5056 0 9.63118 0C4.75674 0 0.791016 3.96573 0.791016 8.84016C0.791016 13.7146 4.75674 17.6803 9.63118 17.6803C11.5395 17.6824 13.3967 17.0637 14.9225 15.9175L19.6831 20.6781C19.9241 20.8936 20.2384 21.0085 20.5615 20.9995C20.8846 20.9905 21.192 20.8581 21.4205 20.6295C21.6491 20.401 21.7815 20.0936 21.7905 19.7705C21.7996 19.4474 21.6846 19.1331 21.4692 18.8921ZM3.31678 8.84016C3.31678 7.59129 3.68711 6.37047 4.38094 5.33207C5.07478 4.29367 6.06095 3.48434 7.21476 3.00642C8.36856 2.52849 9.63818 2.40345 10.8631 2.64709C12.0879 2.89073 13.213 3.49212 14.0961 4.3752C14.9792 5.25829 15.5806 6.38341 15.8242 7.60828C16.0679 8.83315 15.9428 10.1028 15.4649 11.2566C14.987 12.4104 14.1777 13.3966 13.1393 14.0904C12.1009 14.7842 10.88 15.1546 9.63118 15.1546C7.95711 15.1526 6.35218 14.4866 5.16844 13.3029C3.98469 12.1192 3.31878 10.5142 3.31678 8.84016Z" fill="#FAFAFA"/>
</svg>

<svg xmlns="http://www.w3.org/2000/svg" width="22" height="21" fill="none" xmlns:v="https://vecta.io/nano"><path d="M21.469 18.892l-4.761-4.761c1.146-1.526 1.765-3.383 1.763-5.291 0-4.874-3.966-8.84-8.84-8.84S.791 3.966.791 8.84s3.966 8.84 8.84 8.84c1.908.002 3.766-.617 5.291-1.763l4.761 4.761c.241.215.555.33.878.321s.631-.141.859-.37.361-.536.37-.859-.106-.637-.321-.878zM3.317 8.84c0-1.249.37-2.47 1.064-3.508s1.68-1.848 2.834-2.326 2.423-.603 3.648-.359 2.35.845 3.233 1.728 1.485 2.008 1.728 3.233.119 2.495-.359 3.648-1.287 2.14-2.326 2.834-2.259 1.064-3.508 1.064A6.32 6.32 0 0 1 3.317 8.84z" fill="#fafafa"/></svg>
